X:166
T: Mdchen und Baum (2-68) S. 205
N: P0941
O: Lothringen
S: PINCK, Louis: Verklingende Weisen, Bd 2, Metz 1928]
R: verlorene Ehre]
M: 3/4
L: 1/8
K: F
C2 | C4F2 | F2F2G2 | F2E2D2 | C4
A2 | A4c2 | cccBA2 | A4G2 | G4
G2 | B2B2B2 | d2c2B2 | A4c2 | c2F2
F2 | G4A2 | B4E2 | F4A2 | A4
A2 | B2B2B2 | d2c2B2 | A4c2 | c2F2
F2 | G4A2 | B4E2 | F4A2 | A4

@@@ Tune index: 7716
